COLOR/action 16/16/media-skip-backward.svg

<svg height="16" width="16" xmlns="http://www.w3.org/2000/svg"><g fill="#c43ac4" transform="translate(.610151 -1.579235)"><path d="m.889849 4.8116567-1 .025391v4.3496094 4.3925779h1v-3.7812501c3.108516 1.9186981 5.648929 3.1579681 7.013672 3.7695311v-3.7597655c3.101 1.9130005 5.636047 3.1497665 6.998047 3.7597655v-8.7558593c-1.34.6-3.813047 1.8087657-6.998047 3.7597657v-3.7597657c-1.341671.6012205-3.820459 1.8116158-7.013672 3.7675782z"/><g transform="translate(21.889849 3.579235)"><path d="m-21 1.2324219-1 .025391v.5l1-.025391zm7.013672 0c-1.341671.6012205-3.820459 1.8116157-7.013672 3.7675781v.5c3.193213-1.9559624 5.672001-3.1663576 7.013672-3.7675781zm6.9980468 0c-1.34.6-3.8130468 1.8087656-6.9980468 3.7597656v.5c3.185-1.951 5.6580468-3.1597656 6.9980468-3.7597656z" fill="#fff" opacity=".3"/><path d="m-21 5.71875v.5c3.108516 1.9186981 5.648929 3.1579683 7.013672 3.7695312v-.5c-1.364743-.6115629-3.905156-1.8508326-7.013672-3.7695312zm7.013672.00977v.5c3.101 1.9130005 5.6360467 3.1497666 6.9980468 3.7597656v-.5c-1.3620001-.6100034-3.8970468-1.846769-6.9980468-3.75977zm-8.013672 3.77148v.5h1v-.5z" fill="#000" fill-opacity=".929412" opacity=".2"/></g></g></svg>

<?xml version="1.0" encoding="UTF-8" standalone="no"?>
<!-- Created with Inkscape (http://www.inkscape.org/) -->

<svg
   xmlns:dc="http://purl.org/dc/elements/1.1/"
   xmlns:cc="http://creativecommons.org/ns#"
   xmlns:rdf="http://www.w3.org/1999/02/22-rdf-syntax-ns#"
   xmlns:svg="http://www.w3.org/2000/svg"
   xmlns="http://www.w3.org/2000/svg"
   xmlns:xlink="http://www.w3.org/1999/xlink"
   xmlns:sodipodi="http://sodipodi.sourceforge.net/DTD/sodipodi-0.dtd"
   xmlns:inkscape="http://www.inkscape.org/namespaces/inkscape"
   id="svg2415"
   width="16"
   height="16"
   version="1.1"
   sodipodi:docname="media-skip-backward.svg"
   inkscape:version="0.92.4 (5da689c313, 2019-01-14)">
  <metadata
     id="metadata32">
    <rdf:RDF>
      <cc:Work
         rdf:about="">
        <dc:format>image/svg+xml</dc:format>
        <dc:type
           rdf:resource="http://purl.org/dc/dcmitype/StillImage" />
        <dc:title />
      </cc:Work>
    </rdf:RDF>
  </metadata>
  <sodipodi:namedview
     pagecolor="#ffffff"
     bordercolor="#666666"
     borderopacity="1"
     objecttolerance="10"
     gridtolerance="10"
     guidetolerance="10"
     inkscape:pageopacity="0"
     inkscape:pageshadow="2"
     inkscape:window-width="1920"
     inkscape:window-height="1016"
     id="namedview30"
     showgrid="true"
     inkscape:zoom="52.4375"
     inkscape:cx="8"
     inkscape:cy="8"
     inkscape:window-x="0"
     inkscape:window-y="27"
     inkscape:window-maximized="1"
     inkscape:current-layer="svg2415">
    <inkscape:grid
       type="xygrid"
       id="grid869" />
  </sodipodi:namedview>
  <defs
     id="defs2417">
    <linearGradient
       id="linearGradient3703">
      <stop
         id="stop3705"
         style="stop-color:#fff"
         offset="0" />
      <stop
         id="stop3707"
         style="stop-color:#fff;stop-opacity:0"
         offset="1" />
    </linearGradient>
    <linearGradient
       id="linearGradient3689"
       x1="1.3633"
       x2="4.5012"
       y1="5.2996"
       y2="11.562"
       gradientTransform="translate(-.029005)"
       gradientUnits="userSpaceOnUse">
      <stop
         id="stop2858"
         style="stop-color:#eeeeec"
         offset="0" />
      <stop
         id="stop2860"
         style="stop-color:#babdb6"
         offset=".78131" />
      <stop
         id="stop2862"
         style="stop-color:#a1a59b"
         offset="1" />
    </linearGradient>
    <linearGradient
       id="linearGradient3713"
       x1="7.3034"
       x2="10.501"
       y1="5.1798"
       y2="11.682"
       gradientTransform="translate(.97065)"
       gradientUnits="userSpaceOnUse">
      <stop
         id="stop3617"
         style="stop-color:#eeeeec"
         offset="0" />
      <stop
         id="stop3619"
         style="stop-color:#babdb6"
         offset=".6958" />
      <stop
         id="stop3621"
         style="stop-color:#a1a59b"
         offset="1" />
    </linearGradient>
    <linearGradient
       id="linearGradient3721"
       x1="8"
       x2="8"
       y1="4"
       y2="13"
       gradientTransform="translate(.97065)"
       gradientUnits="userSpaceOnUse"
       xlink:href="#linearGradient3703" />
    <linearGradient
       id="linearGradient3725"
       x1="8"
       x2="8"
       y1="4"
       y2="13"
       gradientTransform="translate(-6.029)"
       gradientUnits="userSpaceOnUse"
       xlink:href="#linearGradient3703" />
    <linearGradient
       id="linearGradient3709"
       x1="14.978"
       x2="15.139"
       y1="5.9683"
       y2="15.736"
       gradientTransform="matrix(1 0 0 .88732 .99932 1.3654)"
       gradientUnits="userSpaceOnUse">
      <stop
         id="stop3705-2"
         style="stop-color:#fff"
         offset="0" />
      <stop
         id="stop3707-0"
         style="stop-color:#fff;stop-opacity:0"
         offset="1" />
    </linearGradient>
    <linearGradient
       id="linearGradient2860"
       x1="3.5"
       x2="12.5"
       y1="-14.5"
       y2="-13.5"
       gradientTransform="translate(.48504 -.49932)"
       gradientUnits="userSpaceOnUse">
      <stop
         id="stop3617-0"
         style="stop-color:#eeeeec"
         offset="0" />
      <stop
         id="stop3619-4"
         style="stop-color:#babdb6"
         offset=".6958" />
      <stop
         id="stop3621-2"
         style="stop-color:#a1a59b"
         offset="1" />
    </linearGradient>
  </defs>
  <g
     id="g839"
     style="color:#000000;fill:#808080"
     transform="translate(0.610151,-1.5792349)">
    <path
       style="font-weight:400;line-height:normal;font-family:sans-serif;text-indent:0;text-align:start;text-decoration:none;text-decoration-line:none;text-decoration-style:solid;text-decoration-color:#000000;text-transform:none;white-space:normal;overflow:visible;isolation:auto;mix-blend-mode:normal;marker:none"
       d="m 0.889849,4.8116567 -1,0.025391 v 4.3496094 4.3925779 h 1 V 9.7979849 C 3.998365,11.716683 6.538778,12.955953 7.903521,13.567516 V 9.8077505 c 3.101,1.9130005 5.636047,3.1497665 6.998047,3.7597655 V 4.8116567 c -1.34,0.6 -3.813047,1.8087657 -6.998047,3.7597657 V 4.8116567 C 6.56185,5.4128772 4.083062,6.6232725 0.889849,8.5792349 Z"
       id="path837"
       inkscape:connector-curvature="0"
       sodipodi:nodetypes="cccccccccccccc" />
    <path
       style="font-weight:400;line-height:normal;font-family:sans-serif;text-indent:0;text-align:start;text-decoration:none;text-decoration-line:none;text-decoration-style:solid;text-decoration-color:#000000;text-transform:none;white-space:normal;overflow:visible;opacity:0.3;isolation:auto;mix-blend-mode:normal;fill:#ffffff;fill-opacity:1;marker:none"
       d="m -21,1.2324219 -1,0.025391 v 0.5 l 1,-0.025391 z m 7.013672,0 C -15.327999,1.8336424 -17.806787,3.0440376 -21,5 v 0.5 c 3.193213,-1.9559624 5.672001,-3.1663576 7.013672,-3.7675781 z m 6.9980468,0 c -1.34,0.6 -3.8130468,1.8087656 -6.9980468,3.7597656 v 0.5 c 3.185,-1.951 5.6580468,-3.1597656 6.9980468,-3.7597656 z"
       transform="translate(21.889849,3.5792349)"
       id="path872"
       inkscape:connector-curvature="0" />
    <path
       style="font-weight:400;line-height:normal;font-family:sans-serif;text-indent:0;text-align:start;text-decoration:none;text-decoration-line:none;text-decoration-style:solid;text-decoration-color:#000000;text-transform:none;white-space:normal;overflow:visible;opacity:0.2;isolation:auto;mix-blend-mode:normal;fill:#000000;fill-opacity:0.92941176;marker:none"
       d="m -21,5.71875 v 0.5 c 3.108516,1.9186981 5.648929,3.1579683 7.013672,3.7695312 v -0.5 C -15.351071,8.8767183 -17.891484,7.6374486 -21,5.71875 Z m 7.013672,0.00977 v 0.5 c 3.101,1.9130005 5.6360467,3.1497666 6.9980468,3.7597656 v -0.5 C -8.3502813,8.8782822 -10.885328,7.6415166 -13.986328,5.7285156 Z M -22,9.5 V 10 h 1 V 9.5 Z"
       transform="translate(21.889849,3.5792349)"
       id="path877"
       inkscape:connector-curvature="0" />
  </g>
</svg>
